kiosk-igrinskij/images/731dc30c5be68ffb9621a819a03fdc35.svg

<svg fill="none" height="16" viewBox="0 0 16 16" width="16" xmlns="http://www.w3.org/2000/svg"><path d="m9.16582 0c-4.29976 0-7.00779 1.48084-6.82589 2.67032.0517.33934.1968 1.26441.37975 2.42867-2.10712.81738-2.8049375 2.14325-2.71153304 3.22346.11075404 1.27948 1.26245304 2.64915 3.79226304 2.88555 1.44435.1348 3.18206-.6563 4.30782-2.00863-.10708-.18193-.16946-.39311-.16946-.61934 0-.67677.54886-1.22572 1.2267-1.22572.67731 0 1.22673.54895 1.22673 1.22572 0 .66714-.53435 1.20908-1.19869 1.22449-1.34096 1.72718-3.38132 2.76908-5.31442 2.64808.04486.2849.06186.3926.08412.5367.07956.5062 2.05682 2.0667 5.20226 2.0695 3.14583-.0028 5.12343-1.5633 5.20243-2.0695.0783-.5038 1.4389-9.11113 1.6235-10.31898.182-1.18948-2.526-2.67032-6.82558-2.67032zm-7.93553 8.21704c-.04854-.56208.39815-1.31082 1.68549-1.8729.18523 1.17372.38641 2.44899.56288 3.56859-1.40527-.27631-2.18896-1.00806-2.24837-1.69569zm7.93518-4.45233c-3.14579-.0021-5.87135-.97646-5.87135-1.41177 0-.6065 2.72609-1.715332 5.87135-1.713406 3.14543-.001926 5.89473 1.280026 5.89333 1.713406 0 .43531-2.7472 1.40967-5.89333 1.41177z" fill="#f1e9dd"/></svg>

<svg width="16" height="16" viewBox="0 0 16 16" fill="none" xmlns="http://www.w3.org/2000/svg">
<path d="M9.16582 0C4.86606 0 2.15803 1.48084 2.33993 2.67032C2.39163 3.00966 2.53673 3.93473 2.71968 5.09899C0.61256 5.91637 -0.0852575 7.24224 0.00814696 8.32245C0.118901 9.60193 1.2706 10.9716 3.80041 11.208C5.24476 11.3428 6.98247 10.5517 8.10823 9.19937C8.00115 9.01744 7.93877 8.80626 7.93877 8.58003C7.93877 7.90326 8.48763 7.35431 9.16547 7.35431C9.84278 7.35431 10.3922 7.90326 10.3922 8.58003C10.3922 9.24717 9.85785 9.78911 9.19351 9.80452C7.85255 11.5317 5.81219 12.5736 3.87909 12.4526C3.92395 12.7375 3.94095 12.8452 3.96321 12.9893C4.04277 13.4955 6.02003 15.056 9.16547 15.0588C12.3113 15.056 14.2889 13.4955 14.3679 12.9893C14.4462 12.4855 15.8068 3.87817 15.9914 2.67032C16.1734 1.48084 13.4654 0 9.16582 0ZM1.23029 8.21704C1.18175 7.65496 1.62844 6.90622 2.91578 6.34414C3.10101 7.51786 3.30219 8.79313 3.47866 9.91273C2.07339 9.63642 1.2897 8.90467 1.23029 8.21704ZM9.16547 3.76471C6.01968 3.76261 3.29412 2.78825 3.29412 2.35294C3.29412 1.74644 6.02021 0.637608 9.16547 0.639534C12.3109 0.637608 15.0602 1.91956 15.0588 2.35294C15.0588 2.78825 12.3116 3.76261 9.16547 3.76471Z" fill="#F1E9DD"/>
</svg>
